X:1
T:Title
%%score { ( 1 4 ) | ( 2 3 ) }
L:1/8
Q:1/4=106
M:3/4
K:C
V:1 treble nm="Grand Piano"
V:4 treble 
V:2 bass 
V:3 bass 
V:1
 [CE]2 F2 [_E^F]2 | [EG]4 [Ge]2 | d2 z2 [CE]2 | [CEG]3 [_E^F] [D=F]2 | D2- [DE]2 [DF]2 | %5
w: D.~B.~Towner * *|||||
 [DFB]4 [B,FA]2 | [G,B,FG]4 [G,B,DF]G | E6 | E2 G2 [Ec]2 | [Ge]4 [DB]-[DFB] | d2 c2 EA | ^G4 z2 | %12
w: |||||||
 B4 c2 | d4 G2 | [D^FB]4 F-[FB] | G6 | G4 E2 | [EG]6 | c4 d2 | e-[Ge-] [Ge]4 | [Ge]4 [DFB]2 | %21
w: |||||||||
 d2 c2 ^F2 | G4 z2 | [CEG]6 |] %24
w: |||
V:2
 z2 D2 [C,C]2 | [C,C]4 [C,C]2 | z2[K:treble] c2 A,^G, | G,3 G,[K:bass] G,2 | z2 C2 G,2 | G,4 G,2 | %6
 z2 z A z [G,B,] | [C,G,C]6 | [G,C]2 [CE]2 [C,C]2 | [C,C]4 E,^G, | [A,CE]4 C[CE] | %11
 E2 z2[K:treble] [A,C]2 | [G,DF]4 [G,CE]2 | [G,B,F]4 [G,B,F]2 | z2 z c[K:bass] z D | [G,B,]6 | %16
 E4 C2 | C,C, C,4 | A,4 A,2 | [C,G,]C- [C,C]4 | C2- [E,C]2 G,^G, | [A,CE]4 [^G,CD]2 | %22
 [CE]2 B,2 G,,2 | C,6 |] %24
V:3
 C,4 z2 | x6 | [F,A,]4[K:treble] z2 | x4[K:bass] x2 | G,4 z2 | x6 | G,,4 G,,2 | x6 | C,4 z2 | x6 | %10
 z2 z2 A,2 | [E,B,]4[K:treble] z2 | x6 | x6 | D,4[K:bass] D,2 | x6 | x6 | x6 | x6 | z C, z2 z2 | %20
 C,2 z2 z2 | x6 | G,4 z2 | x6 |] %24
V:4
 x6 | x6 | F4 z2 | x6 | B,2 z2 z2 | x6 | x6 | x6 | x6 | z2 z2 .^G2 | x6 | z2 D2 A2 | x6 | x6 | %14
 z2 z2 .[CA]2 | z2 z2 F2 | x6 | CC C4 | x6 | .G2 z2 z2 | x6 | x6 | z2 D2 [G,DFG]2 | x6 |] %24

